images_breeze_dark_svg/cmd/32/safemode.svg

<svg viewBox="0 0 32 32" xmlns="http://www.w3.org/2000/svg"><path d="m16 4a12 12 0 0 0 -6.0839844 1.671875l5.3769534 5.378906.707031-.710937-4.404297-4.4042971a11 11 0 0 1 4.404297-.9355469 11 11 0 0 1 11 11 11 11 0 0 1 -.195312 2h1.007812a12 12 0 0 0 .1875-2 12 12 0 0 0 -12-12zm-10.328125 5.9160156a12 12 0 0 0 -1.671875 6.0839844 12 12 0 0 0 12 12 12 12 0 0 0 1-.052734v-1.00586a11 11 0 0 1 -1 .058594 11 11 0 0 1 -11-11 11 11 0 0 1 1.4042969-5.351562zm11.035156 11.0332034-.707031.707031 1 1v-1.414062z" fill="#eff0f1"/><path d="m19.25 19c-.6925 0-1.25.5575-1.25 1.25v7.5c0 .6925.5575 1.25 1.25 1.25h7.5c.6925 0 1.25-.5575 1.25-1.25v-7.5c0-.6925-.5575-1.25-1.25-1.25z" fill="#f67400"/><path d="m23 21a2 2 0 0 0 -2 2l.002 1h-1.002v3h6v-3h-1v-1a2 2 0 0 0 -2-2zm0 1a1 1 0 0 1 1 1v1h-2v-1a1 1 0 0 1 1-1z" fill="#fff"/></svg>

<?xml version="1.0" encoding="UTF-8" standalone="no"?>
<svg
   xmlns:dc="http://purl.org/dc/elements/1.1/"
   xmlns:cc="http://creativecommons.org/ns#"
   xmlns:rdf="http://www.w3.org/1999/02/22-rdf-syntax-ns#"
   xmlns:svg="http://www.w3.org/2000/svg"
   xmlns="http://www.w3.org/2000/svg"
   xmlns:sodipodi="http://sodipodi.sourceforge.net/DTD/sodipodi-0.dtd"
   xmlns:inkscape="http://www.inkscape.org/namespaces/inkscape"
   viewBox="0 0 32 32"
   version="1.1"
   id="svg6"
   sodipodi:docname="safemode.svg"
   inkscape:version="0.92.4 (unknown)">
  <metadata
     id="metadata10">
    <rdf:RDF>
      <cc:Work
         rdf:about="">
        <dc:format>image/svg+xml</dc:format>
        <dc:type
           rdf:resource="http://purl.org/dc/dcmitype/StillImage" />
        <dc:title></dc:title>
      </cc:Work>
    </rdf:RDF>
  </metadata>
  <sodipodi:namedview
     pagecolor="#ffffff"
     bordercolor="#666666"
     borderopacity="1"
     objecttolerance="10"
     gridtolerance="10"
     guidetolerance="10"
     inkscape:pageopacity="0"
     inkscape:pageshadow="2"
     inkscape:window-width="1366"
     inkscape:window-height="706"
     id="namedview8"
     showgrid="true"
     inkscape:zoom="5.2149125"
     inkscape:cx="30.314551"
     inkscape:cy="1.9009957"
     inkscape:window-x="0"
     inkscape:window-y="0"
     inkscape:window-maximized="1"
     inkscape:current-layer="svg6">
    <inkscape:grid
       type="xygrid"
       id="grid855" />
  </sodipodi:namedview>
  <defs
     id="defs3051">
    <style
       type="text/css"
       id="current-color-scheme">
      .ColorScheme-Text {
        color:#eff0f1;
      }
      </style>
  </defs>
  <path
     style="fill:currentColor;fill-opacity:1;stroke:none"
     d="M 16 4 A 12 12 0 0 0 9.9160156 5.671875 L 15.292969 11.050781 L 16 10.339844 L 11.595703 5.9355469 A 11 11 0 0 1 16 5 A 11 11 0 0 1 27 16 A 11 11 0 0 1 26.804688 18 L 27.8125 18 A 12 12 0 0 0 28 16 A 12 12 0 0 0 16 4 z M 5.671875 9.9160156 A 12 12 0 0 0 4 16 A 12 12 0 0 0 16 28 A 12 12 0 0 0 17 27.947266 L 17 26.941406 A 11 11 0 0 1 16 27 A 11 11 0 0 1 5 16 A 11 11 0 0 1 6.4042969 10.648438 L 5.671875 9.9160156 z M 16.707031 20.949219 L 16 21.65625 L 17 22.65625 L 17 21.242188 L 16.707031 20.949219 z "
     id="path4" />
  <path
     inkscape:connector-curvature="0"
     style="fill:#f67400;fill-opacity:1;stroke:none;stroke-width:1.25"
     class="ColorScheme-NeutralText"
     d="M 19.25,19 C 18.5575,19 18,19.5575 18,20.25 v 7.5 c 0,0.6925 0.5575,1.25 1.25,1.25 h 7.5 C 27.4425,29 28,28.4425 28,27.75 v -7.5 C 28,19.5575 27.4425,19 26.75,19 Z"
     id="path6" />
  <path
     inkscape:connector-curvature="0"
     style="fill:#ffffff"
     d="m 23,21 a 2,2 0 0 0 -2,2 l 0.002,1 H 20 v 3 h 6 v -3 h -1 v -1 a 2,2 0 0 0 -2,-2 z m 0,1 a 1,1 0 0 1 1,1 v 1 h -2 v -1 a 1,1 0 0 1 1,-1 z"
     id="path8" />
</svg>
